!!!SOCIAL_FUNCTION:	dance songs
!!!PDT:	1957
!!!OTL: No_82_Deer_Dance_Song.krn
!!!LING_GROUP: Keresan
!!!LANG: Tone
!!!REG: Southwest
**kern
*staff1
=1-
=
*clefF4
*k[]
*M3/4
2G\
8.E\L
16D\Jk
=2
*M2/4
4G\
4G\
=3
12E\L
12D\
12D\J
8D\
8r
=4
*M7/8
2G\
16E\LL
16D\J
8E\
8C\J
=5
*M3/4
4C/
8GG/L
8C/J
8GG/
8r
=6
2C/
16GG/LL
16C/
16C/
16C/JJ
=7
4C/
8GG/L
8GG/J
8GG/
8r
=8
*M2/4
2C/
=9
8GG/L
8C/J
4GG/
=10
8C/L
16GG/L
16C/JJ
4C/
=11
8GG/L
8C/J
4GG/
=12
8GG/L
8GG/J
4r
=13
*M3/4
2C/
16GG/LL
16GG/
16C/
16C/JJ
=14
4C/
8GG/L
8GG/J
8GG/
8r
=15
*M2/4
2C/
=16
8GG/L
8C/J
4GG/
=17
8GG/L
8GG/J
8GG/L
8GG/J
=18
8GG/L
8GG/J
8GG/L
8GG/J
=19
8GG/L
8GG/J
4r
==:|!
*-
